Hatter-kde-dark/actions/24/format-currency.svg

<svg xmlns="http://www.w3.org/2000/svg" viewBox="0 0 24 24">
  <defs id="defs3051">
    <style type="text/css" id="current-color-scheme">
      .ColorScheme-Text {
        color:#dedede;
      }
      </style>
  </defs>
 <path style="fill:currentColor;fill-opacity:1;stroke:none" 
     d="M 10 3 L 10 5.1308594 C 9.0228267 5.272742 8.1906866 5.5299378 7.5371094 5.9316406 C 6.5265594 6.5465406 6.0214844 7.4897186 6.0214844 8.7617188 C 6.0169259 10.957011 7.5789588 11.68039 10 12.345703 L 10 17.335938 C 8.8272793 17.236927 7.7551089 17.016504 6.6230469 16.533203 L 6 17.888672 C 6.56451 18.189972 7.3273025 18.450828 8.2890625 18.673828 C 8.8333381 18.796143 9.4002817 18.874405 10 18.927734 L 10 21 L 11 21 L 11 18.976562 C 11.170103 18.981099 11.31439 19 11.494141 19 C 11.657654 18.998701 11.830233 18.984699 12 18.976562 L 12 21 L 13 21 L 13 18.880859 C 14.996756 18.596007 16.979992 17.678603 16.958984 15.193359 C 16.889001 13.364266 15.755863 12.685849 13 11.716797 L 13 6.7636719 C 13.903264 6.8844157 15.002058 7.135949 16.224609 7.7460938 L 17 6.203125 C 16.44942 5.907625 15.168906 5.4367187 14.353516 5.2617188 C 13.920003 5.1691054 13.466998 5.1061138 13 5.0625 L 13 3 L 12 3 L 12 5.0136719 C 11.907791 5.0119134 11.821909 5 11.728516 5 C 11.471779 5 11.240718 5.0203437 11 5.0332031 L 11 3 L 10 3 z M 11.4375 6.6484375 C 11.588523 6.6492656 11.799836 6.6578876 12 6.6660156 L 12 11.367188 C 11.842551 11.314476 11.74464 11.274025 11.578125 11.21875 C 11.399423 11.174768 11.193204 11.110623 11 11.058594 L 11 6.6621094 C 11.145876 6.6557394 11.291583 6.6484535 11.4375 6.6484375 z M 10 6.7597656 L 10 10.755859 C 8.7730022 10.321486 7.6429561 9.6646592 7.6757812 8.5664062 C 7.6162327 7.5251041 8.6802294 6.9756239 10 6.7597656 z M 11 12.613281 C 11.183873 12.660071 11.329816 12.705391 11.521484 12.753906 C 11.682494 12.799726 11.838881 12.851256 12 12.898438 L 12 17.390625 C 11.850535 17.393725 11.688612 17.409413 11.548828 17.408203 C 11.35735 17.406421 11.184159 17.394213 11 17.388672 L 11 12.613281 z M 13 13.210938 C 14.28148 13.659475 15.319728 14.246286 15.296875 15.275391 C 15.257995 16.671085 14.165263 17.158285 13 17.324219 L 13 13.210938 z "
     class="ColorScheme-Text"
     />
</svg>

<?xml version="1.0" encoding="UTF-8"?>
<svg viewBox="0 0 24 24" xmlns="http://www.w3.org/2000/svg">
 <defs id="defs3051">
  <style id="current-color-scheme" type="text/css">.ColorScheme-Text {
        color:#dedede;
      }</style>
 </defs>
 <path class="ColorScheme-Text" d="m10 3v2.1309c-0.97717 0.14188-1.8093 0.39908-2.4629 0.80078-1.0106 0.6149-1.5156 1.5581-1.5156 2.8301-0.0045585 2.1953 1.5575 2.9187 3.9785 3.584v4.9902c-1.1727-0.099011-2.2449-0.31943-3.377-0.80274l-0.62305 1.3555c0.56451 0.3013 1.3273 0.56216 2.2891 0.78516 0.54428 0.12232 1.1112 0.20058 1.7109 0.25391v2.0723h1v-2.0234c0.1701 0.004537 0.31439 0.023438 0.49414 0.023438 0.16351-0.001299 0.33609-0.015301 0.50586-0.023438v2.0234h1v-2.1191c1.9968-0.28485 3.98-1.2023 3.959-3.6875-0.069983-1.8291-1.2031-2.5075-3.959-3.4766v-4.9531c0.90326 0.12074 2.0021 0.37228 3.2246 0.98242l0.77539-1.543c-0.55058-0.2955-1.8311-0.76641-2.6465-0.94141-0.43351-0.092613-0.88652-0.1556-1.3535-0.19922v-2.0625h-1v2.0137c-0.092209-0.0017585-0.17809-0.013672-0.27148-0.013672-0.25674 0-0.4878 0.020344-0.72852 0.033203v-2.0332h-1zm1.4375 3.6484c0.15102 8.281e-4 0.36234 0.0094501 0.5625 0.017578v4.7012c-0.15745-0.052712-0.25536-0.093163-0.42188-0.14844-0.1787-0.043982-0.38492-0.10813-0.57812-0.16016v-4.3965c0.14588-0.00637 0.29158-0.013656 0.4375-0.013672zm-1.4375 0.11133v3.9961c-1.227-0.43437-2.357-1.0912-2.3242-2.1895-0.059548-1.0413 1.0044-1.5908 2.3242-1.8066zm1 5.8535c0.18387 0.04679 0.32982 0.09211 0.52148 0.14062 0.16101 0.04582 0.3174 0.09735 0.47852 0.14453v4.4922c-0.14946 0.0031-0.31139 0.018788-0.45117 0.017578-0.19148-0.001782-0.36467-0.01399-0.54883-0.019531v-4.7754zm2 0.59766c1.2815 0.44854 2.3197 1.0353 2.2969 2.0645-0.03888 1.3957-1.1316 1.8829-2.2969 2.0488v-4.1133z" fill="currentColor"/>
</svg>
